X: 55
T: Vals från Pajala efter John Groth
S: efter John Groth
O: Norrbotten, Pajala
R: Vals
Z: Håkan Lidén, 2008-09-28
M: 3/4
L: 1/4
K: G
B/c/ | d d/B/ d/g/ | d d/c/ B/d/ | c c/B/ c/e/ | c>B A/F/ | D F A | 
c B A | G B/G/ B/e/ | d2 B/c/ | d d/B/ d/g/ | d d/c/ B/d/ | c c/B/ c/e/ | 
c>B A/F/ | D F A | c B A | G>B B | G2 :: B/c/ | d d>B | G3 | 
G/B/ d c/B/ | A3 | A A>B | c2 e/e/ | e f e | d2 d/d/ | d B A | 
G2 G/G/ | G B G | E2 E/E/ | E F E | D2 c | B2 A | G>B B | G2 :|]

